icons/mobile/24/svg/credit-card-24.svg

<svg width="24" height="24" viewBox="0 0 24 24" fill="none" xmlns="http://www.w3.org/2000/svg">
<path d="M10.125 14.25C10.608 14.25 11 14.642 11 15.125C11 15.608 10.608 16 10.125 16H6.875C6.39201 16 6.00002 15.608 6 15.125C6 14.642 6.392 14.25 6.875 14.25H10.125Z" fill="black"/>
<path fill-rule="evenodd" clip-rule="evenodd" d="M12 5.00098C14.1308 5.00098 16.5754 5.12049 19.2627 5.4668C20.8205 5.66758 22 6.9946 22 8.57227V16.4297C22 17.989 20.854 19.3265 19.292 19.5293C17.1258 19.8096 14.6793 20 12 20C9.86922 20 7.42458 19.8805 4.7373 19.5342C3.17954 19.3334 2 18.0064 2 16.4287V8.57129C2 7.01198 3.14602 5.67452 4.70801 5.47168C6.8742 5.19139 9.32072 5.00098 12 5.00098ZM3.75 16.4287C3.75 17.119 4.2687 17.7086 4.96094 17.7979C7.56556 18.1335 9.93485 18.25 12 18.25C14.5965 18.25 16.9667 18.0656 19.0664 17.7939C19.7402 17.7066 20.25 17.1262 20.25 16.4297V11.75H3.75V16.4287ZM12 6.75098C9.40348 6.75098 7.03329 6.93535 4.93359 7.20703C4.25983 7.29442 3.75 7.87477 3.75 8.57129V10H20.25V8.57227C20.25 7.88193 19.7313 7.29235 19.0391 7.20312C16.4344 6.86746 14.0652 6.75098 12 6.75098Z" fill="black"/>
</svg>

<!-- This Source Code Form is subject to the terms of the Mozilla Public
   - License, v. 2.0. If a copy of the MPL was not distributed with this
   - file, You can obtain one at http://mozilla.org/MPL/2.0/. -->
<svg xmlns="http://www.w3.org/2000/svg" width="24" height="24" fill="none" viewBox="0 0 24 24">
    <path fill="#000" d="M10.125 14.25a.875.875 0 0 1 0 1.75h-3.25a.875.875 0 0 1 0-1.75z" />
    <path fill="#000" fill-rule="evenodd" d="M12 5.001c2.13 0 4.575.12 7.263.466A3.14 3.14 0 0 1 22 8.572v7.858a3.12 3.12 0 0 1-2.708 3.1 56.8 56.8 0 0 1-14.555.004A3.14 3.14 0 0 1 2 16.43V8.57a3.12 3.12 0 0 1 2.708-3.1A57 57 0 0 1 12 5.002M3.75 16.429c0 .69.519 1.28 1.21 1.369a55 55 0 0 0 14.106-.004 1.37 1.37 0 0 0 1.184-1.364v-4.68H3.75zM12 6.75c-2.597 0-4.967.184-7.066.456A1.37 1.37 0 0 0 3.75 8.571V10h16.5V8.572c0-.69-.519-1.28-1.21-1.369A55 55 0 0 0 12 6.751" clip-rule="evenodd" />
</svg>
